src/icons/solid/symbols/pen.svg

<svg width="24" height="24" viewBox="0 0 24 24" fill="none" xmlns="http://www.w3.org/2000/svg">
<g clip-path="url(#clip0_4191_643)">
<path d="M3.33803 16.1855C3.41368 16.168 3.49266 16.1697 3.56752 16.1904C3.64258 16.2112 3.71172 16.2505 3.76772 16.3047L7.67104 20.2324C7.73292 20.289 7.77832 20.3616 7.80092 20.4424C7.82352 20.5232 7.82253 20.6089 7.79897 20.6895C7.77947 20.7649 7.74219 20.8351 7.68959 20.8926C7.63699 20.95 7.57059 20.9935 7.49721 21.0195L1.62807 22.9785C1.54065 23.0065 1.44655 23.0076 1.35854 22.9814C1.27069 22.9554 1.19292 22.903 1.1349 22.832C1.07437 22.7726 1.03128 22.6969 1.01186 22.6143C0.99247 22.5318 0.996964 22.4454 1.02455 22.3652L3.00893 16.4883C3.03177 16.413 3.07409 16.3451 3.13197 16.292C3.18986 16.2389 3.26122 16.2018 3.33803 16.1855Z" fill="#3C3B44"/>
<path d="M15.5011 4.08984C15.6221 4.08984 15.7384 4.13741 15.8253 4.22168L19.7384 8.13965C19.8228 8.22675 19.8703 8.34353 19.8703 8.46484C19.8702 8.58599 19.8226 8.70204 19.7384 8.78906L9.29799 19.2344C9.25701 19.278 9.20737 19.3131 9.15248 19.3369C9.09761 19.3606 9.03843 19.373 8.97865 19.373C8.91869 19.373 8.85888 19.3608 8.80385 19.3369C8.7489 19.3131 8.69934 19.2781 8.65834 19.2344L4.74526 15.3164C4.70249 15.2739 4.66882 15.2227 4.64565 15.167C4.62252 15.1113 4.61049 15.0515 4.61049 14.9912C4.6105 14.9309 4.62249 14.8711 4.64565 14.8154C4.66884 14.7597 4.70244 14.7086 4.74526 14.666L15.1769 4.22168C15.2638 4.13735 15.3801 4.08988 15.5011 4.08984Z" fill="#3C3B44"/>
<path d="M19.7658 1C20.6182 1.00001 21.4375 1.33117 22.0509 1.92383C22.3516 2.22396 22.5903 2.58102 22.7531 2.97363C22.9159 3.36634 23.0001 3.78769 23.0001 4.21289C23.0001 4.63793 22.9158 5.0586 22.7531 5.45117C22.5903 5.84387 22.3517 6.20079 22.0509 6.50098L21.3839 7.1416C21.2974 7.22335 21.1826 7.26953 21.0636 7.26953C20.9448 7.26946 20.8307 7.22327 20.7443 7.1416L16.8312 3.22363C16.7884 3.18112 16.7538 3.13089 16.7306 3.0752C16.7075 3.01955 16.6965 2.95969 16.6964 2.89941C16.6964 2.83899 16.7074 2.77843 16.7306 2.72266C16.7538 2.66696 16.7884 2.61672 16.8312 2.57422L17.4806 1.92383C18.0941 1.33118 18.9133 1 19.7658 1Z" fill="#3C3B44"/>
</g>
<defs>
<clipPath id="clip0_4191_643">
<rect width="24" height="24" fill="white"/>
</clipPath>
</defs>
</svg>

<svg xmlns="http://www.w3.org/2000/svg" width="24" height="24" fill="none" viewBox="0 0 24 24"><g fill="currentColor" clip-path="url(#a)"><path d="M3.338 16.186a.47.47 0 0 1 .43.119l3.903 3.927a.45.45 0 0 1 .128.457.48.48 0 0 1-.302.33l-5.869 1.96a.46.46 0 0 1-.493-.147.45.45 0 0 1-.11-.467l1.984-5.877a.44.44 0 0 1 .329-.302M15.501 4.09c.121 0 .237.047.324.132l3.913 3.918a.47.47 0 0 1 0 .65L9.298 19.233a.44.44 0 0 1-.494.103.4.4 0 0 1-.146-.103l-3.913-3.918a.46.46 0 0 1 0-.65L15.177 4.222a.47.47 0 0 1 .324-.132M19.766 1c.852 0 1.672.331 2.285.924a3.234 3.234 0 0 1 0 4.577l-.667.64a.467.467 0 0 1-.64 0l-3.913-3.917a.46.46 0 0 1 0-.65l.65-.65A3.3 3.3 0 0 1 19.766 1"/></g><defs><clipPath id="a"><path fill="currentColor" d="M0 0h24v24H0z"/></clipPath></defs></svg>
